X:229
T:insomniac.tef
C:
N:Transcribed by Michael Abraham
R:bluegrass
L:1/8
Q:1/4=232
M:4/4
K:C
"D"^f2 fg fe dA | BA cA BA DF | "Bm"^F2 FF "G"G2 F2 | "A"E^F GA B^c de | "D"^f2 fg fe dA | 
BA cA BA DF | "Bm"^F=F ^FG "G"Ad ^cd | "A"AG ^FE "D"D2 f2 | ^f2 fg fe dA | BA cA BA DF | 
"Bm"^F2 FF "G"G2 F2 | "A"E^F GA B^c de | "D"^f3g fe dA | BA cA BA DF | "Bm"^F=F ^FG "G"Ad ^cd | 
"A"AG ^FE "D"D4 | D2 DE ^FA A2 | "F#m"^F2 A2 FA2A | "Bm"d2 d2 Bd2d | "G"B2 B2 GB2B | 
"A"^c2 cc Ac2c | e2 ee ^ce2e | ^c'a e^f af ed | ed ^cB AG ^FE | "D"D2 DE ^FA A2 | 
"F#m"^F2 A2 FA3 | "Bm"d2 dd Bd3 | "G"B2 BB GB2B | "A"^c2 cc Ac2c | e2 ee ^ce2e | 
^c'a e^f af ed | ed ^cB AG ^FE | "D"D2 DE ^FD EF | "G"G^F GA "G/F#"BA GF | "Em"E2 E^F GF G^G | 
"A"A^G AB ^cA Bc | "D"d4 {e}^fa ba | "G"d'3b3 {d'}e'e' | "Em"e'e' e'e' e'2 ef | 
"A"^f=f e^c "D"dB A^F | D^F Ad ^fd Ad | "G"gd Ad "G/F#"^fd AB | "Em"eB AB eB AB | 
"A"eB eB AG ^FE | "D"D2 DE ^FD EF | "G"G^F GA "G/F#"B2 Ac | "Em"df dc A^G =G^G | 
"A"A^G =GF "D"D4 | 


